/* XPM */
static char *_a47212b47954cd6c32b80e9a1aa7270C1UikfFmvhhfHgo2[] = {
/* columns rows colors chars-per-pixel */
"64 64 216 2 ",
"   c #371921",
".  c #372A2F",
"X  c #4F000D",
"o  c #480007",
"O  c #52000A",
"+  c #5C010B",
"@  c #590618",
"#  c #4A0D1D",
"$  c #65020F",
"%  c #690317",
"&  c #71061C",
"*  c #790619",
"=  c #5F192B",
"-  c #591E30",
";  c #4C1C2C",
":  c #7B0B22",
">  c #780F28",
",  c #671325",
"<  c #741325",
"1  c #7D142B",
"2  c #7D1123",
"3  c #7D1D33",
"4  c #731A31",
"5  c #592C35",
"6  c #74222E",
"7  c #632D3A",
"8  c #672536",
"9  c #732B3A",
"0  c #763D40",
"q  c #6C3541",
"w  c #79444D",
"e  c #7C4656",
"r  c #63575B",
"t  c #636064",
"y  c #84061D",
"u  c #96021E",
"i  c #A8031D",
"p  c #820C25",
"a  c #820D2A",
"s  c #8A0C2A",
"d  c #8C0725",
"f  c #940624",
"g  c #9D0526",
"h  c #950A26",
"j  c #9D0B25",
"k  c #950D2B",
"l  c #9B0B2B",
"z  c #8C132D",
"x  c #85112A",
"c  c #95122D",
"v  c #9B132C",
"b  c #9F1D2F",
"n  c #9C0F31",
"m  c #8A1731",
"M  c #961231",
"N  c #9C1532",
"B  c #9C1B35",
"V  c #911834",
"C  c #A50524",
"Z  c #A60B26",
"A  c #AA0C27",
"S  c #AA072A",
"D  c #A40B2C",
"F  c #AB0B2D",
"G  c #AB0627",
"H  c #B40927",
"J  c #B4072B",
"K  c #BB0629",
"L  c #B40B2C",
"P  c #BC0A2C",
"I  c #B90525",
"U  c #A9102F",
"Y  c #A5142E",
"T  c #B3112F",
"R  c #BC132F",
"E  c #AC0C31",
"W  c #A20C31",
"Q  c #BC0D31",
"!  c #B30C32",
"~  c #A41333",
"^  c #AA1433",
"/  c #A41B35",
"(  c #A51D39",
")  c #AB1938",
"_  c #B21332",
"`  c #BA1333",
"'  c #B41935",
"]  c #B71739",
"[  c #BB1D3C",
"{  c #B61A39",
"}  c #80202E",
"|  c #812B3C",
" . c #86253A",
".. c #97223A",
"X. c #A42439",
"o. c #B6233E",
"O. c #A5353F",
"+. c #C30326",
"@. c #CC0226",
"#. c #C3062A",
"$. c #CC052A",
"%. c #C40A2C",
"&. c #CB0A2D",
"*. c #D4052C",
"=. c #DA052D",
"-. c #D1092C",
";. c #D30728",
":. c #C40E33",
">. c #CB0C31",
",. c #D40930",
"<. c #D80731",
"1. c #C21332",
"2. c #C31638",
"3. c #C31A3B",
"4. c #C91539",
"5. c #D3153B",
"6. c #C02239",
"7. c #872B41",
"8. c #982A43",
"9. c #863449",
"0. c #953649",
"q. c #98354B",
"w. c #9B3C51",
"e. c #A92945",
"r. c #BA2741",
"t. c #B42945",
"y. c #A83340",
"u. c #B5334B",
"i. c #AB3852",
"p. c #BB3C56",
"a. c #B83853",
"s. c #C11F40",
"d. c #D61C43",
"f. c #C42242",
"g. c #C32943",
"h. c #C52C4C",
"j. c #C82648",
"k. c #C4334B",
"l. c #C53854",
"z. c #814657",
"x. c #9A4356",
"c. c #A5455A",
"v. c #A8455B",
"b. c #BB455B",
"n. c #BE565D",
"m. c #924E60",
"M. c #8D5465",
"N. c #9D5F6B",
"B. c #975864",
"V. c #BE4F65",
"C. c #B2566B",
"Z. c #A65466",
"A. c #986673",
"S. c #966669",
"D. c #A86877",
"F. c #C3405F",
"G. c #D54359",
"H. c #C34B62",
"J. c #D64D69",
"K. c #D44F66",
"L. c #CA566B",
"P. c #D6556C",
"I. c #C65E73",
"U. c #DA5B76",
"Y. c #E04262",
"T. c #E15D73",
"R. c #C26176",
"E. c #C86A7E",
"W. c #DF6379",
"Q. c #BD6E81",
"!. c #B57D8B",
"~. c #CC6C80",
"^. c #DC6B82",
"/. c #C8788B",
"(. c #D67789",
"). c #E76A89",
"_. c #BB8A97",
"`. c #B6848C",
"'. c #B5B4B8",
"]. c #D6879B",
"[. c #CC929F",
"{. c #C28595",
"}. c #E68598",
"|. c #FB869F",
" X c #DE8FA4",
".X c #D494A2",
"XX c #D19FAC",
"oX c #C69BA8",
"OX c #EA89A1",
"+X c #EA92A4",
"@X c #EC98AB",
"#X c #F898A9",
"$X c #DDA1AD",
"%X c #DCA6B2",
"&X c #DBB0B9",
"*X c #E7A7B5",
"=X c #F5A7BA",
"-X c #E0B1BB",
";X c #FFADC1",
":X c #EAB6C3",
">X c #E8B9C5",
",X c #F6B8C7",
"<X c #FFA5F8",
"1X c #E6C0CD",
"2X c #FECDDB",
"3X c #FAC8D6",
"4X c #FDD4DF",
"5X c #FDD3E4",
"6X c #FBDBE5",
"7X c #FEDCE9",
"8X c #FFCBFA",
"9X c #FFDAFC",
"0X c #FFE3ED",
"qX c #FFE7F2",
"wX c #FFEAF4",
"eX c #FFF0F7",
/* pixels */
"<X<X<X<X8X8X8X8X<X<X<X8X8X8X8X<X<X<X<X8X8X8X8X8X8X8X<X<X<X<X8X8X8X8X<X<X<X<X<X<X<X<X<X<X<X<X<X<X<X<X<X<X<X<X<X<X<X<X<X<X<X<X<X<X",
"<X<X<X<X8X8X8X8X<X<X<X8X8X8X8X<X<X<X<X8X8X8X8X8X8X8X<X<X<X<X8X8X8X8X<X<X<X<X<X<X<X<X<X<X<X<X<X<X<X<X<X<X<X<X<X<X<X<X<X<X<X<X<X<X",
"<X<X<X<X8X8X8X8X<X<X<X8X8X8X8X<X<X<X<X8X8X8X8X8X8X8X<X<X<X<X8X8X8X8X<X<X<X<X<X<X<X<X<X<X<X<X<X<X<X<X<X<X<X<X<X<X<X<X<X<X<X<X<X<X",
"<X<X<X<X8X8X8X8X<X<X<X8X8X8X8X<X<X<X<X8X8X8X8X8X8X8X<X<X<X<X8X8X8X8X<X<X<X<X<X<X<X<X<X<X<X<X<X<X<X<X<X<X<X<X<X<X<X<X<X<X<X<X<X<X",
"<X<X<X<X<X<X<X<X<X<X<X<X<X<X<X<X<X<X<X<X<X<X<X8X8X8X<X<X<X<X<X<X<X<X8X8X8X8X<X<X<X8X8X8X8X8X8X8X8X8X8X8X8X8X8X8X8X8X8X8X<X<X<X<X",
"<X<X<X<X<X<X<X<X<X<X<X<X<X<X<X<X<X<X<X<X<X<X<X8X8X8X<X<X<X<X<X<X<X<X8X8X8X8X<X<X<X8X8X8X8X8X8X8X8X8X8X8X8X8X8X8X8X8X8X8X<X<X<X<X",
"<X<X<X<X<X<X<X<X<X<X<X<X<X<X<X<X<X<X<X<X<X<X<X8X8X8X<X<X<X<X<X<X<X<X8X8X8X8X<X<X<X8X8X8X8X8X8X8X8X8X8X8X8X8X8X8X8X8X8X8X<X<X<X<X",
"<X<X<X<X<X<X<X<X<X<X<X<X<X<X<X<X<X<X<X<X<X<X<X8X8X8X<X<X<X<X<X<X<X<X8X8X8X8X<X<X<X8X8X8X8X8X8X8X8X8X8X8X8X8X8X8X8X8X8X8X<X<X<X<X",
"8X8X8X8X8X8X8X8X8X8X8X8X8X8X8X8X8X8X8X8X8X8X8X8X8X8X8X8X8X8X8X8X8X8X8X8X8X8X8X8X8X8X8X8X8X8X8X8X8X8X8X8X8X8X8X8X8X8X8X8X8X8X8X8X",
"8X8X8X8X8X8X8X8X8X8X8X8X8X8X8X8X8X8X8X8X8X8X8X8X8X8X8X8X8X8X8X8X8X8X8X8X8X8X8X8X8X8X8X8X8X8X8X8X8X8X8X8X8X8X8X8X8X8X8X8X8X8X8X8X",
"8X8X8X8X8X8X8X8X8X8X8X8X8X8X8X8X8X8X8X8X8X8X8X8X8X8X8X8X8X8X8X8X8X8X8X8X8X8X8X8X8X8X8X8X8X8X8X8X8X8X8X8X8X8X8X8X8X8X8X8X8X8X8X8X",
"8X8X8X8X8X8X8X8X8X8X8X8X8X8X8X8X8X8X8X<X<X<X<X9X9X9X9X9X9X9X8X8X8X8X8X8X8X8X8X8X8X8X8X8X8X8X8X8X8X8X8X8X8X8X8X8X8X8X8X8X8X8X8X8X",
"8X8X8X8X8X8X8X8X8X8X8X8X8X8X8X8X8X8X8X<X<X<X<X9X9X9X9X9X9X9X8X8X8X8X8X8X8X8X8X8X8X8X8X8X8X8X8X8X8X8X8X8X8X8X8X8X8X8X8X8X8X8X8X8X",
"8X8X8X8X8X8X8X8X8X8X8X8X8X8X8X8X8X8X8X<X<X<X<X9X9X9X9X9X9X9X8X8X8X8X8X8X8X8X8X8X8X8X8X8X8X8X8X8X8X8X8X8X8X8X8X8X8X8X8X8X8X8X8X8X",
"8X8X8X8X8X8X8X8X8X8X8X8X8X8X8X8X8X8X8X<X<X<X<X9X9X9X9X9X9X9X8X8X8X8X8X8X8X8X8X8X8X8X8X8X8X8X8X8X8X8X8X8X8X8X8X8X8X8X8X8X8X8X8X8X",
"8X8X8X8X8X8X8X8X8X8X8X8X8X8X8X<X<X<X<X8X8X8X8X8X8X8X9X9X9X9X9X9X9X9X8X8X8X8X9X9X9X9X9X9X9X8X8X8X8X<X<X<X<X<X<X<X8X8X8X8X8X8X8X8X",
"8X8X8X8X8X8X8X8X8X8X8X8X8X8X8X<X<X<X<X8X8X8X8X8X8X8X9X9X9X9X9X9X5 w 8X8X8X8X9X9X9X9X9X9X9X8X8X8X8X<X<X<X<X<X<X<X8X8X8X8X8X8X8X8X",
"8X8X8X8X8X8X8X8X8X8X8X8X8X8X8X<X<X<X<X8X8X8X8X8X8X8X9X9X9X9X; # , | 8X8X8X8X9X9X9X9X9X9X9X8X8X8X8X<X<X<X<X<X<X<X8X8X8X8X8X8X8X8X",
"8X8X8X8X8X8X8X8X8X8X8X8X8X8X8X<X<X<X'.t . .   7 8X8Xw.3 = @ @ > z N B ..q.8X9X9X9X9X9X9X9X8X8X8X8X<X<X<X<X<X<X<X8X8X8X8X8X8X8X8X",
"8X8X8X8X9X9X9X9X9X9X9X<X<X<X<X8X8X8X8Xr 9X9Xq , m B N z & & p N _ _ D l M V 8.9X9X<X<X<X<X<X<X<X<X<X<X<X<X<X<X<X8X8X8X8X<X<X<X<X",
"8X8X8X8X9X9X9X9X9X9X9X<X<X<X<X8X8X8X8X9X9X9X0.c D F F U l l ^ ] ] ` U ~ h k M m 9X<X<X<X<X<X<X<X<X<X<X<X<X<X<X<X8X8X8X8X<X<X<X<X",
"8X8X8X8X9X9X9X9X9X9X9X<X<X<X<X8X8X8X8X9X9Xc.B ^ :.%.K P 3.[ ] _ ^ ~ u.H.a.N ~ n a  .<X<X<X<X<X<X<X<X<X<X<X<X<X<X8X8X8X8X<X<X<X<X",
"8X8X8X8X9X9X9X9X9X9X9X<X<X<X<X8X8X8X8X9Xc.N F P &.&.%.P 2.[ / B .. ./.=XOXe.~ D l s 3 <X<X<X<X<X<X<X<X<X<X<X<X<X8X8X8X8X<X<X<X<X",
"8X8X8X8X9X9X9X9X9X9X9X9X9X9X9X9X9X9X9XC.B _ 1.>.%.%.1.H _ l.L.c.8 7 XX7X=Xu.^ A D l s 3 <X<X<X<X<X<X<X<X<X8X8X8X8X8X8X8X<X<X<X<X",
"8X8X8X8X9X9X9X9X9X9X9X9X9X9X9X9X9X9X9X8.^ 2.4.1.` ' r.r.o.K.#X.XA.A.1X5X}.e.^ C F E l a | <X<X<X<X<X<X<X<X8X8X8X8X8X8X8X<X<X<X<X",
"8X8X8X8X9X9X9X9X9X9X9X9X9X9X9X9X9X9Xv.( [ 3.` ^ / e.I.^.k.k.^.@X*X*X,X XF.) l f F F D k 1 <X<X<X<X<X<X<X<X8X8X8X8X8X8X8X<X<X<X<X",
"<X<X<X<X8X8X8X8X9X9X9X9X9X9X9X9X9X/.i.e.o.u.b.0.4 x. XOXg.R 6.G.T.W.P.a.{ ^ y * g F E W s 3 <X<X<X<X<X<X<X8X8X8X<X<X<X<X8X8X8X8X",
"<X<X<X<X8X8X8X8X9X9X9X9X9X9X9X9X9XC.u.t.u.(.*X!.e D.@XU.1.&.;.-.&.&.%.` ] c $ % h F E D l a <X<X<X<X<X<X<X8X8X8X<X<X<X<X8X8X8X8X",
"<X<X<X<X8X8X8X8X9X9X9X9X9X9X9X9X9Xv.a.r.l.+X2X>X.X].^.j.&.=.=.=.=.-.>.Q v & O % h A ! S D s 7.<X<X<X<X<X<X8X8X8X<X<X<X<X8X8X8X8X",
"<X<X<X<X8X8X8X8X9X9X9X9X9X9X9X9X9Xi.l.f.f.J.}.+X}.P.f.>.*.=.=.*.,.>.2.D & X X < h G Q L Z k 1 <X<X<X<X<X<X8X8X8X<X<X<X<X8X8X8X8X",
"9X9X9X9X9X9X9X9X9X9X9X9X9X9X9X9X9Xi.h.3.:.2.j.k.g.1.>.,.=.=.,.>.:.! l * O o % z g J P P S l a 9X9X<X<X<X<X<X<X<X<X<X<X<X9X9X9X9X",
"9X9X9X9X9X9X9X9X9X9X9X9X9X9X9X9X9Xe.j.4.>.>.>.:.>.&.-.*.*.,.&.Q F d % + O @ x v C P K K J l a 9X9X<X<X<X<X<X<X<X<X<X<X<X9X9X9X9X",
"9X9X9X9X9X9X9X9X9X9X9X9X9X9X9X9X9XX.3.4.-.*.*.,.-.-.-.&.$.%.H i u y * * : z N g J K %.K J l a 9X9X<X<X<X<X<X<X<X<X<X<X<X9X9X9X9X",
"9X9X9X9X9X9X9X9X9X9X9X9X9X9X9X9X9XN ` >.-.*.=.*.$.$.#.#.I i i C Z ^ Y v ( ~ l C P #.%.P F l p 9X9X<X<X<X<X<X<X<X<X<X<X<X9X9X9X9X",
"9X9X9X9X9X9X9X9X9X9X9X9X9X9X9X9X9Xv L &.-.*.*.@.@.+.I I K P R ` T F D v ( X.l E %.&.%.P F l p 9X9X9X9X9X9X9X9X9X9X9X9X9X9X9X9X9X",
"9X9X9X9X9X9X9X9X9X9X9X9X9X9X9X9X9Xv H %.&.*.*.$.$.&.%.%.:.P P L _ ) ( a.R.E.p.) %.$.%.J E l p 9X9X9X9X9X9X9X9X9X9X9X9X9X9X9X9X9X",
"9X9X9X9X9X9X9X9X9X9X9X9X9X9X9X9X9Xb A K $.-.-.$.$.+.+.K Q ` ' r.p.V.R.=X2X5X;Xb.1.&.#.J F h p 9X9X9X9X9X9X9X9X9X9X9X9X9X9X9X9X9X",
"9X9X9X9X9X9X9X9X9X9X9X9X9X9X9X9X9XX.Z K &.-.*.-.-.&.&.2.h.l.L.}.3X4X6XwX6X0X0X}.` %.K J g d 2 9X9X9X9X9X9X9X9X9X9X9X9X9X9X9X9X9X",
"9X9X9X9X9X9X9X9X9X9X9X9X9X9X9X9X9XO.j H %.&.-.*.*.,.5.Y.|.;X3X5X0XwXeX6X[.,XwX,Xr.P L S h p } 9X9X9X9X9X9X9X9X9X9X9X9X9X9X9X9X9X",
"9X9X9X9X9X9X9X9X9X9X9X9X9X9X9X9X9Xn./ A K $.-.=.=.-.d.).5XqXwX6X,X4X0X:X9.Q.0X0XL.U D l s 1 9X9X9X9X9X9X9X9X9X9X9X9X9X9X9X9X9X9X",
"9X9X9X9X9X9X9X9X9X9X9X9X9X9X9X9X9X9Xy.j H %.&.*.=.*.:.J.,XqX0X-XB.[.wX3Xc.c.2XqX(...c d : 9.9X9X9X9X9X9X9X9X9X9X9X9X9X9X9X9X9X9X",
"9X9X9X9X9X9X9X9X<X<X<X9X9X9X9X9X9X9X9XB A P #.@.@.-.%.' H.*XwX>Xx.Z.7X6X~.| $X4X=X0.a a 4 9X9X9X9X9X9X9X9X9X9X9X9X9X9X9X9X9X9X9X",
"9X9X9X9X9X9X9X9X<X<X<X9X9X9X9X9X9X9X9X9Xv Z J K #.%.%.T X.E.7X3XR.q.=X5X+X| D.3X,XD.7., 9X9X9X9X9X9X9X9X9X9X9X9X9X9X9X9X9X9X9X9X",
"9X9X9X9X9X9X9X9X<X<X<X9X9X9X9X9X9X9X9X9X9Xx k E ! L L L ^ b.,X5X].9.!.2X,XB.w %X>X&XN.0 9X9X9X9X9X9X9X9X9X9X9X9X9X9X9X9X9X9X9X9X",
"9X9X9X9X9X9X9X9X<X<X<X9X9X9X9X9X9X9X9X9X9X9X1 s l D F A D e.].2X*Xe M.:X:X%XN.D._.S.9X9X9X9X9X9X9X9X9X9X9X9X9X9X9X9X9X9X9X9X9X9X",
"9X9X9X9X<X<X<X<X<X<X<X<X<X<X<X9X9X9X9X9X9X9X9X3 p d h h c  .D.>X>X_.M._.%X{.m.8 7 9X9X9X9X9X9X9X9X9X9X9X9X9X9X9X9X9X9X9X9X9X9X9X",
"9X9X9X9X<X<X<X<X<X<X<X<X<X<X<X9X9X9X9X9X9X9X9X<X<X1 * y :  .D.-X&XoXA.z.z.7 - 9X9X9X9X9X9X9X9X9X9X9X9X9X9X9X9X9X9X9X9X9X9X9X9X9X",
"9X9X9X9X<X<X<X<X<X<X<X<X<X<X<X9X9X9X9X9X9X9X9X<X<X<X9X< < 6 N.`.A.e 7 - 7 9X9X9X9X9X9X9X9X9X9X9X9X9X9X9X9X9X9X9X9X9X9X9X9X9X9X9X",
"9X9X9X9X<X<X<X<X<X<X<X<X<X<X<X9X9X9X9X9X9X9X9X<X<X<X9X9X9X9X9X9X9X9X9X9X9X9X9X9X9X9X9X9X9X9X9X9X9X9X9X9X9X9X9X9X9X9X9X9X9X9X9X9X",
"<X<X<X<X<X<X<X<X<X<X<X<X<X<X<X9X9X9X9X<X<X<X<X<X<X<X<X<X<X<X9X9X9X9X9X9X9X9X9X9X9X9X9X9X9X9X9X9X9X9X9X9X9X9X9X9X9X9X9X9X<X<X<X<X",
"<X<X<X<X<X<X<X<X<X<X<X<X<X<X<X9X9X9X9X<X<X<X<X<X<X<X<X<X<X<X9X9X9X9X9X9X9X9X9X9X9X9X9X9X9X9X9X9X9X9X9X9X9X9X9X9X9X9X9X9X<X<X<X<X",
"<X<X<X<X<X<X<X<X<X<X<X<X<X<X<X9X9X9X9X<X<X<X<X<X<X<X<X<X<X<X9X9X9X9X9X9X9X9X9X9X9X9X9X9X9X9X9X9X9X9X9X9X9X9X9X9X9X9X9X9X<X<X<X<X",
"<X<X<X<X<X<X<X<X<X<X<X<X<X<X<X9X9X9X9X<X<X<X<X<X<X<X<X<X<X<X9X9X9X9X9X9X9X9X9X9X9X9X9X9X9X9X9X9X9X9X9X9X9X9X9X9X9X9X9X9X<X<X<X<X",
"<X<X<X<X<X<X<X<X<X<X<X<X<X<X<X<X<X<X<X<X<X<X<X<X<X<X<X<X<X<X<X<X<X<X9X9X9X9X8X8X8X8X8X8X8X8X8X8X8X8X8X8X8X8X8X8X9X9X9X9X<X<X<X<X",
"<X<X<X<X<X<X<X<X<X<X<X<X<X<X<X<X<X<X<X<X<X<X<X<X<X<X<X<X<X<X<X<X<X<X9X9X9X9X8X8X8X8X8X8X8X8X8X8X8X8X8X8X8X8X8X8X9X9X9X9X<X<X<X<X",
"<X<X<X<X<X<X<X<X<X<X<X<X<X<X<X<X<X<X<X<X<X<X<X<X<X<X<X<X<X<X<X<X<X<X9X9X9X9X8X8X8X8X8X8X8X8X8X8X8X8X8X8X8X8X8X8X9X9X9X9X<X<X<X<X",
"8X8X8X8X8X8X8X8X8X8X8X8X8X8X8X8X8X8X8X8X8X8X8X8X8X8X8X8X8X8X8X8X8X8X8X8X8X8X8X8X8X8X8X8X8X8X8X8X8X8X8X8X8X8X8X8X8X8X8X8X8X8X8X8X",
"8X8X8X8X8X8X8X8X8X8X8X8X8X8X8X8X8X8X8X8X8X8X8X8X8X8X8X8X8X8X8X8X8X8X8X8X8X8X8X8X8X8X8X8X8X8X8X8X8X8X8X8X8X8X8X8X8X8X8X8X8X8X8X8X",
"8X8X8X8X8X8X8X8X8X8X8X8X8X8X8X8X8X8X8X8X8X8X8X8X8X8X8X8X8X8X8X8X8X8X8X8X8X8X8X8X8X8X8X8X8X8X8X8X8X8X8X8X8X8X8X8X8X8X8X8X8X8X8X8X",
"8X8X8X8X8X8X8X8X8X8X8X8X8X8X8X8X8X8X8X8X8X8X8X8X8X8X8X8X8X8X8X8X8X8X8X8X8X8X8X8X8X8X8X8X8X8X8X8X8X8X8X8X8X8X8X8X8X8X8X8X8X8X8X8X",
"8X8X8X8X8X8X8X8X<X<X<X<X<X<X<X<X<X<X<X<X<X<X<X8X8X8X8X8X8X8X8X8X8X8X8X8X8X8X8X8X8X8X8X8X8X8X8X8X8X8X8X8X8X8X8X8X8X8X8X8X8X8X8X8X",
"8X8X8X8X8X8X8X8X<X<X<X<X<X<X<X<X<X<X<X<X<X<X<X8X8X8X8X8X8X8X8X8X8X8X8X8X8X8X8X8X8X8X8X8X8X8X8X8X8X8X8X8X8X8X8X8X8X8X8X8X8X8X8X8X",
"8X8X8X8X8X8X8X8X<X<X<X<X<X<X<X<X<X<X<X<X<X<X<X8X8X8X8X8X8X8X8X8X8X8X8X8X8X8X8X8X8X8X8X8X8X8X8X8X8X8X8X8X8X8X8X8X8X8X8X8X8X8X8X8X",
"8X8X8X8X8X8X8X8X<X<X<X<X<X<X<X<X<X<X<X<X<X<X<X8X8X8X8X8X8X8X8X8X8X8X8X8X8X8X8X8X8X8X8X8X8X8X8X8X8X8X8X8X8X8X8X8X8X8X8X8X8X8X8X8X"
};
