/* XPM */
static char *a776c140b4be46eb953756f561e2808c9syiDqUJPJRJhmA8[] = {
/* columns rows colors chars-per-pixel */
"64 64 194 2 ",
"   c #5C181B",
".  c #690D14",
"X  c #670F1D",
"o  c #6B0D1D",
"O  c #670715",
"+  c #700719",
"@  c #730C1A",
"#  c #661216",
"$  c #64121D",
"%  c #6C131D",
"&  c #641A1D",
"*  c #6B181B",
"=  c #761019",
"-  c #77181B",
";  c #4D1E24",
":  c #431F21",
">  c #5F1525",
",  c #511F24",
"<  c #5C1924",
"1  c #5D1E2A",
"2  c #6A0E21",
"3  c #710822",
"4  c #631523",
"5  c #6B1623",
"6  c #641B23",
"7  c #6A1823",
"8  c #651C29",
"9  c #6E1B29",
"0  c #6C1629",
"q  c #751623",
"w  c #721926",
"e  c #7D1D23",
"r  c #72172A",
"t  c #7C1629",
"y  c #701A29",
"u  c #7C1C29",
"i  c #7A1226",
"p  c #4E2026",
"a  c #552326",
"s  c #56222B",
"d  c #59222B",
"f  c #5E2226",
"g  c #622127",
"h  c #65212B",
"j  c #6B232B",
"k  c #7E232C",
"l  c #7E2123",
"z  c #6F2330",
"x  c #6E2D38",
"c  c #7B2935",
"v  c #831C23",
"b  c #861C29",
"n  c #911F2D",
"m  c #852127",
"M  c #842129",
"N  c #8D212D",
"B  c #9D2D2D",
"V  c #94292F",
"C  c #8E2630",
"Z  c #8D2C35",
"A  c #822A3A",
"S  c #842131",
"D  c #922630",
"F  c #9C2633",
"G  c #952833",
"H  c #9C2D33",
"J  c #962838",
"K  c #9D2D3A",
"L  c #8E3037",
"P  c #8C313C",
"I  c #9B3134",
"U  c #95333A",
"Y  c #9E323D",
"T  c #91383D",
"R  c #9E383E",
"E  c #943034",
"W  c #A3262D",
"Q  c #A1292D",
"!  c #A3312E",
"~  c #A22236",
"^  c #A42D36",
"/  c #A42C39",
"(  c #AA2B3A",
")  c #A42638",
"_  c #AD353E",
"`  c #B2343F",
"'  c #9D3741",
"]  c #AE3541",
"[  c #AB3F48",
"{  c #AA3648",
"}  c #B13443",
"|  c #B7374D",
" . c #B43C4E",
".. c #BC3D56",
"X. c #BF3C58",
"o. c #9D545A",
"O. c #A74B49",
"+. c #AC4D5F",
"@. c #B44352",
"#. c #B34A5F",
"$. c #A6515C",
"%. c #BD5359",
"&. c #8E5262",
"*. c #995C71",
"=. c #B64766",
"-. c #B34A62",
";. c #B05C60",
":. c #BD5069",
">. c #B85462",
",. c #A76366",
"<. c #B7656C",
"1. c #AA6A7B",
"2. c #C7505E",
"3. c #C8505B",
"4. c #CE5661",
"5. c #E45F72",
"6. c #D76C6C",
"7. c #D16F71",
"8. c #DE667D",
"9. c #D56E7B",
"0. c #DC6B7D",
"q. c #D5757F",
"w. c #E4657B",
"e. c #E9677F",
"r. c #E46A7D",
"t. c #EB6B7E",
"y. c #DE6F87",
"u. c #DE6D89",
"i. c #DC7186",
"p. c #D67182",
"a. c #EC6784",
"s. c #E36C85",
"d. c #EB6B84",
"f. c #E36E89",
"g. c #EA6D8A",
"h. c #E36583",
"j. c #F26E85",
"k. c #F26C8B",
"l. c #F26781",
"z. c #E47184",
"x. c #EC7185",
"c. c #E57089",
"v. c #ED738D",
"b. c #E47B8B",
"n. c #EB7987",
"m. c #F17287",
"M. c #F2728C",
"N. c #F36F91",
"B. c #EC7A93",
"V. c #F47592",
"C. c #DC9797",
"Z. c #D59B96",
"A. c #DD9598",
"S. c #DB9998",
"D. c #E3828C",
"F. c #E78394",
"G. c #EA8293",
"H. c #F08092",
"J. c #E2999E",
"K. c #F3A4A7",
"L. c #F5A8A7",
"P. c #F4A3A9",
"I. c #F9AFAE",
"U. c #EFB7AE",
"Y. c #F5B4AD",
"T. c #FBB5AE",
"R. c #F6BCAE",
"E. c #FABAAF",
"W. c #FCBAAF",
"Q. c #FCABB2",
"!. c #EDB8B0",
"~. c #F6B3B0",
"^. c #F6B3B0",
"/. c #FAB2B1",
"(. c #F9B6B1",
"). c #FFB5B4",
"_. c #FEB6B4",
"`. c #FCB2B1",
"'. c #F7BBB4",
"]. c #F3BEB6",
"[. c #F9B8B3",
"{. c #FEBAB1",
"}. c #F8BCB4",
"|. c #FDB9BC",
" X c #FFA5F8",
".X c #FFA5F8",
"XX c #DCC2C4",
"oX c #F3D4D7",
"OX c #FFCBFA",
"+X c #FFCBFA",
"@X c #FFDAFC",
"#X c #FFDAFC",
"$X c #FBF7F7",
"%X c #FFFCF6",
/* pixels */
" X X X XOXOXOXOX X X XOXOXOXOX X X X XOXOXOXOXOXOXOX X X X XOXOXOXOX X X X X X X X X X X X X X X X X X X X X X X X X X X X X X X",
" X X X XOXOXOXOX X X XOXOXOXOX X X X XOXOXOXOXOXOXOX X X X XOXOXOXOX X X X X X X X X X X X X X X X X X X X X X X X X X X X X X X",
" X X X XOXOXOXOX X X XOXOXOXOX X X X XOXOXOXOXOXOXOX X X X XOXOXOXOX X X X X X X X X X X X X X X X X X X X X X X X X X X X X X X",
" X X X XOXOXOXOX X X XOXOXOXOX X X X XOXOXOXOXOXOXOX X X X XOXOXOXOX X X X X X X X X X X X X X X X X X X X X X X X X X X X X X X",
" X X X X X X X X X X X X X X X X X X X X X X XOXOXOX X X X X X X X XOXOXOXOX X X XOXOXOXOXOXOXOXOXOXOXOXOXOXOXOXOXOXOXOX X X X X",
" X X X X X X X X X X X X X X X X X X X X X X XOXOXOX X X X X X X X XOXOXOXOX X X XOXOXOXOXOXOXOXOXOXOXOXOXOXOXOXOXOXOXOX X X X X",
" X X X X X X X X X X X X X X X X X X X X X X XOXOXOX X X X X X X X XOXOXOXOX X X XOXOXOXOXOXOXOXOXOXOXOXOXOXOXOXOXOXOXOX X X X X",
" X X X X X X X X X X X X X X X X X X X X X X XOXOXOX X X X X X X X XOXOXOXOX X X XOXOXOXOXOXOXOXOXOXOXOXOXOXOXOXOXOXOXOX X X X X",
"OXOXOXOXOXOXOXOXOXOXOXOXOXOXOXOXOX, g g g g 6 6 6 6 6 6 6 6 6 6 6 6 6 6 6 6 6 < 6 < 6 h h > : OXOXOXOXOXOXOXOXOXOXOXOXOXOXOXOXOX",
"OXOXOXOXOXOXOXOXOXOXOXOXOXOXOXOXOXf 7 * & & & & & & & & & & & & & & & & & & & & & 6 6 6 & 6 a OXOXOXOXOXOXOXOXOXOXOXOXOXOXOXOXOX",
"OXOXOXOXOXOXOXOXOXOXOXOXOXOXOXOXOX4 6 D I O.Y.].].}.'.'.'.[.[.R.R.E.E.T.E.E.E.{.{.{.T.T.A.7 , OXOXOXOXOXOXOXOXOXOXOXOXOXOXOXOXOX",
"OXOXOXOXOXOXOXOXOXOXOXOXOXOXOXOXOX4 6 D I O.I.^./.`.Y.Y.(.(.(.(.(.).).).).)./././.T.T.Y.S.6 , OXOXOXOXOXOXOXOXOXOXOXOXOXOXOXOXOX",
"OXOXOXOXOXOXOXOXOXOXOXOXOXOXOXOXOX4 6 D H [ b.G.G.H.G.G.F.F.F.F.F.G.G.G.B.G.G.F.F.D.L.Y.Z.6 , OXOXOXOXOXOXOXOXOXOXOXOXOXOXOXOXOX",
"OXOXOXOXOXOXOXOXOXOXOXOXOXOXOXOXOX4 6 G / ] d.d.k.M.k.k.k.k.a.k.k.g.g.g.g.g.M.k.d.z.K.U.Z.6 , OXOXOXOXOXOXOXOXOXOXOXOXOXOXOXOXOX",
"OXOXOXOXOXOXOXOXOXOXOXOXOXOXOXOXOX4 6 G ^ _ t.a.w.z.9.0.w.t.j.a.d.d.r.r.0.8.d.w.l.g.P.!.Z.6 , OXOXOXOXOXOXOXOXOXOXOXOXOXOXOXOXOX",
"OXOXOXOXOXOXOXOXOXOXOXOXOXOXOX X X4 6 G ^ ] t.d.K E # * e F W d.t.F H v # = H ( j.c.P.^.C.6 ; OXOX X X X X X X XOXOXOXOXOXOXOXOX",
"OXOXOXOXOXOXOXOXOXOXOXOXOXOXOX X X4 6 G ^ ] d.x.G U w u t N H d.s.K m e 5 e I / d.c.P.~.A.6 , OXOX X X X X X X XOXOXOXOXOXOXOXOX",
"OXOXOXOXOXOXOXOXOXOXOXOXOXOXOX X X4 6 G ^ ] d.c.o # p.B.:.o O f.c.O o >.B.i.# + k.c.P.~.A.6 , OXOX X X X X X X XOXOXOXOXOXOXOXOX",
"OXOXOXOXOXOXOXOXOXOXOXOXOXOXOX X X4 6 G ^ ] d.y.w 7 i.g.-.4 4 g.c.4 4 #.g.i.4 r N.c.P.~.A.6 , OXOX X X X X X X XOXOXOXOXOXOXOXOX",
"OXOXOXOX@X@X@X@X@X@X@X X X X XOXOX4 6 G ^ _ d.f.r 7 i.d.+.4 2 g.f.4 6 #.g.f.5 y M.c.P.~.A.6 ,  X X X X X X X X XOXOXOXOX X X X X",
"OXOXOXOX@X@X@X@X@X@X@X X X X XOXOX4 6 G ^ } d.f.r 7 f.g.+.4 2 g.f.$ 6 #.g.y.4 y v.c.P.~.A.6 ,  X X X X X X X X XOXOXOXOX X X X X",
"OXOXOXOX@X@X@X@X@X@X@X X X X XOXOX4 6 G ^ } d.u.y 7 f.g.+.4 o g.c.$ 7 #.g.i.4 y v.c.P.~.A.6 ,  X X X X X X X X XOXOXOXOX X X X X",
"OXOXOXOX@X@X@X@X@X@X@X X X X XOXOX4 6 G ^ } d.u.y 7 f.g.+.4 o g.c.$ 7 #.g.i.4 y v.c.P.~.A.6 ,  X X X X X X X X XOXOXOXOX X X X X",
"OXOXOXOX@X@X@X@X@X@X@X@X@X@X@X@X@X4 6 G ^ } d.u.y 7 f.g.+.4 o g.c.$ 7 #.g.i.4 y v.c.P.~.A.6 ,  X X X X X XOXOXOXOXOXOXOX X X X X",
"OXOXOXOX@X@X@X@X@X@X@X@X@X@X@X@X@X4 6 G ^ } d.u.y 7 f.g.+.4 o g.c.$ 7 #.g.i.4 y v.c.P.~.A.6 ,  X X X X X XOXOXOXOXOXOXOX X X X X",
"OXOXOXOX@X@X@X@X@X@X@X@X@X@X@X@X@X4 6 G ^ } d.u.y 7 f.g.+.4 o g.f.$ 4 #.g.i.4 y M.c.P.Y.C.6 ,  X X X X X XOXOXOXOXOXOXOX X X X X",
" X X X XOXOXOXOX@X@X@X@X@X@X@X@X@X4 6 G ^ } d.u.w 7 y.g.+.4 o g.g.2 5 #.g.y.4 y M.c.K.Y.C.6 ,  X X X X X XOXOXOX X X X XOXOXOXOX",
" X X X XOXOXOXOX@X@X@X@X@X@X@X@X@X4 6 G ^ } d.u.w 7 y.g.+.4 o g.g.2 5 #.g.y.4 y M.g.P.^.A.7 ,  X X X X X XOXOXOX X X X XOXOXOXOX",
" X X X XOXOXOXOX@X@X@X@X@X@X@X@X@X4 6 G ^ } d.u.w 7 y.g.+.4 o g.g.2 5 #.g.z.4 5 V.g.<.,.o.6 ,  X X X X X XOXOXOX X X X XOXOXOXOX",
" X X X XOXOXOXOX@X@X@X@X@X@X@X@X@X4 6 G ^ } d.u.w 7 y.g.+.4 o g.g.2 5 #.s.y.4 5 V.s.A 6 j 7 ,  X X X X X XOXOXOX X X X XOXOXOXOX",
"@X@X@X@X@X@X@X@X@X@X@X@X@X@X@X@X@X4 6 G ^ } d.f.w 7 z.v.+.% o g.g.o 7 #.x.i.$ 5 V.d.c > 7 9 , @X@X X X X X X X X X X X X@X@X@X@X",
"@X@X@X@X@X@X@X@X@X@X@X@X@X@X@X@X@X4 6 G ^ ` t.m./ H w # e _ F d.d.F R - 7 % H / x.h.c 8 6 4 , @X@X X X X X X X X X X X X@X@X@X@X",
"@X@X@X@X@X@X@X@X@X@X@X@X@X@X@X@X@X4 6 G ^ } d.m.F K w 5 b / / d.d./ K v 9 q K ~ M.f.x < < 8 ; @X@X X X X X X X X X X X X@X@X@X@X",
"@X@X@X@X@X@X@X@X@X@X@X@X@X@X@X@X@X4 6 G ^ ] d.d.r.x.v.b.M.j.j.M.M.d.x.n.v.m.d.e.d.h.oX%XXX7 , @X@X X X X X X X X X X X X@X@X@X@X",
"@X@X@X@X@X@X@X@X@X@X@X@X@X@X@X@X@X4 6 G ^ ] d.d.m.d.s.0.d.j.d.a.a.j.x.s.d.d.j.m.d.V.oX$XXXz , @X@X@X@X@X@X@X@X@X@X@X@X@X@X@X@X@X",
"@X@X@X@X@X@X@X@X@X@X@X@X@X@X@X@X@X4 6 G ^ ] d.g... .' U { @.@.M.M.X...{ T '  .| j.f.1.*.&.< , @X@X@X@X@X@X@X@X@X@X@X@X@X@X@X@X@X",
"@X@X@X@X@X@X@X@X@X@X@X@X@X@X@X@X@X4 6 G ^ ] d.g.( H % 7 k H W d.d.F H e 7 * H ( x.s.A 7 4 7 , @X@X@X@X@X@X@X@X@X@X@X@X@X@X@X@X@X",
"@X@X@X@X@X@X@X@X@X@X@X@X@X@X@X@X@X4 6 G ^ } d.v.Z Z b i S Z C v.x.N Z M t k L J M.s.A 7 7 7 , @X@X@X@X@X@X@X@X@X@X@X@X@X@X@X@X@X",
"@X@X@X@X@X@X@X@X@X@X@X@X@X@X@X@X@X4 6 G ^ ` d.i.5 7 z.f.#.4 X d.c.o 7 +.g.i.$ 5 V.v.A j 4 j , @X@X@X@X@X@X@X@X@X@X@X@X@X@X@X@X@X",
"@X@X@X@X@X@X@X@X@X@X@X@X@X@X@X@X@X4 6 G ^ ` s.y.9 7 f.g.+.4 2 d.g.4 7 -.g.f.4 7 V.r.c j 6 & , @X@X@X@X@X@X@X@X@X@X@X@X@X@X@X@X@X",
"@X@X@X@X@X@X@X@X@X@X@X@X@X@X@X@X@X4 6 G ^ _ s.y.r 0 f.d.$.4 3 g.g.4 8 =.g.f.4 4 v.8.Q.|.J.  , @X@X@X@X@X@X@X@X@X@X@X@X@X@X@X@X@X",
"@X@X@X@X@X@X@X@X X X X@X@X@X@X@X@X4 6 G ^ } d.u.y 7 f.g.+.4 o g.c.$ 7 #.g.i.4 y v.c.P.^.A.6 , @X@X@X@X@X@X@X@X@X@X@X@X@X@X@X@X@X",
"@X@X@X@X@X@X@X@X X X X@X@X@X@X@X@X4 6 G ^ } d.u.y 7 f.g.+.4 o g.c.$ 7 #.g.i.4 y v.f.P.^.A.6 , @X@X@X@X@X@X@X@X@X@X@X@X@X@X@X@X@X",
"@X@X@X@X@X@X@X@X X X X@X@X@X@X@X@X4 6 G ^ } d.u.y 7 f.g.+.4 o g.c.$ 7 #.g.i.4 y v.f.P.~.A.6 , @X@X@X@X@X@X@X@X@X@X@X@X@X@X@X@X@X",
"@X@X@X@X@X@X@X@X X X X@X@X@X@X@X@X4 6 G ^ } d.u.y 7 f.g.+.4 o g.c.$ 4 #.g.i.4 y v.c.P.~.A.6 , @X@X@X@X@X@X@X@X@X@X@X@X@X@X@X@X@X",
"@X@X@X@X X X X X X X X X X X X@X@X4 6 G ^ } d.u.y 7 f.g.+.4 o g.c.$ 4 #.g.i.4 y v.c.P.~.A.6 , @X@X@X@X@X@X@X@X@X@X@X@X@X@X@X@X@X",
"@X@X@X@X X X X X X X X X X X X@X@X> 6 G ^ } d.c.@ . 9.b.%.. O d.c.O . ;.b.q.. @ x.c.P.~.A.6 , @X@X@X@X@X@X@X@X@X@X@X@X@X@X@X@X@X",
"@X@X@X@X X X X X X X X X X X X@X@X> 6 G / } a.d.K U 7 % e n ) a.s.Y m l $ e Y ) j.c.P.~.A.6 , @X@X@X@X@X@X@X@X@X@X@X@X@X@X@X@X@X",
"@X@X@X@X X X X X X X X X X X X@X@X> 6 G / } a.j.( ^ o w u F ~ a.d.F H b * = / ( x.c.P.~.A.6 , @X@X@X@X@X@X@X@X@X@X@X@X@X@X@X@X@X",
" X X X X X X X X X X X X X X X@X@X> 6 G / } a.a.5.j.8.0.9.0.d.a.a.j.w.e.0.w.t.w.0.c.P.~.A.6 , @X@X@X@X@X@X@X@X@X@X@X@X@X X X X X",
" X X X X X X X X X X X X X X X@X@X> 6 G ^ } d.d.M.m.c.g.d.a.a.j.k.a.k.g.k.k.k.M.g.c.P.~.A.6 , @X@X@X@X@X@X@X@X@X@X@X@X@X X X X X",
" X X X X X X X X X X X X X X X@X@X, 7 V ^ / 4.3.3.2.2.2.2.2.2.2.2.2.2.2.2.2.2.2.2.%.6.7.<.< p @X@X@X@X@X@X@X@X@X@X@X@X@X X X X X",
" X X X X X X X X X X X X X X X@X@X< 7 D ^ B ! B B B B B B B B B B B B B B B B B B Q Q H Z 9 p @X@X@X@X@X@X@X@X@X@X@X@X@X X X X X",
" X X X X X X X X X X X X X X X X X< 7 Z H I I I I H H H H H H H H H H H H H H H H I H U P 4 p OXOXOXOXOXOXOXOXOX@X@X@X@X X X X X",
" X X X X X X X X X X X X X X X X Xd 6 6 7 5 5 5 5 5 8 7 7 7 7 7 8 8 7 7 7 7 7 7 7 & 6 7 6 6 s OXOXOXOXOXOXOXOXOX@X@X@X@X X X X X",
" X X X X X X X X X X X X X X X X X; s s s s s s s s 1 1 1 1 1 1 1 1 1 1 1 1 1 1 1 a s s d s ; OXOXOXOXOXOXOXOXOX@X@X@X@X X X X X",
"OXOXOXOXOXOXOXOXOXOXOXOXOXOXOXOX+XOXOXOXOXOXOXOXOXOXOXOXOXOXOXOXOXOXOXOXOXOXOXOXOXOXOXOXOXOXOXOXOXOXOXOXOXOXOXOXOXOXOXOXOXOXOXOX",
"OXOXOXOXOXOXOXOXOXOXOXOXOXOXOXOX+XOXOXOXOXOXOXOXOXOXOXOXOXOXOXOXOXOXOXOXOXOXOXOXOXOXOXOXOXOXOXOXOXOXOXOXOXOXOXOXOXOXOXOXOXOXOXOX",
"OXOXOXOXOXOXOXOXOXOXOXOXOXOXOXOXOXOXOXOXOXOXOXOXOXOXOXOXOXOXOXOXOXOXOXOXOXOXOXOXOXOXOXOXOXOXOXOXOXOXOXOXOXOXOXOXOXOXOXOXOXOXOXOX",
"OXOXOXOXOXOXOXOXOXOXOXOXOXOXOXOXOXOXOXOXOXOXOXOXOXOXOXOXOXOXOXOXOXOXOXOXOXOXOXOXOXOXOXOXOXOXOXOXOXOXOXOXOXOXOXOXOXOXOXOXOXOXOXOX",
"OXOXOXOXOXOXOXOX X X X X X X X X X X X X X X XOXOXOXOXOXOXOXOXOXOXOXOXOXOXOXOXOXOXOXOXOXOXOXOXOXOXOXOXOXOXOXOXOXOXOXOXOXOXOXOXOX",
"OXOXOXOXOXOXOXOX X X X X X X X X X X X X X X XOXOXOXOXOXOXOXOXOXOXOXOXOXOXOXOXOXOXOXOXOXOXOXOXOXOXOXOXOXOXOXOXOXOXOXOXOXOXOXOXOX",
"OXOXOXOXOXOXOXOX X X X X X X X X X X X X X X XOXOXOXOXOXOXOXOXOXOXOXOXOXOXOXOXOXOXOXOXOXOXOXOXOXOXOXOXOXOXOXOXOXOXOXOXOXOXOXOXOX",
"OXOXOXOXOXOXOXOX X X X X X X X X X X X X X X XOXOXOXOXOXOXOXOXOXOXOXOXOXOXOXOXOXOXOXOXOXOXOXOXOXOXOXOXOXOXOXOXOXOXOXOXOXOXOXOXOX"
};
