/* XPM */
static char *d48a4273ff464bc5fe88662f6c12748fSZcQ4OzW2G4hm4kA[] = {
/* columns rows colors chars-per-pixel */
"64 64 3 1 ",
"  c #FFA5F8",
". c #FFCBFA",
"X c #FFDAFC",
/* pixels */
"    ....   ....    .......    ....                              ",
"    ....   ....    .......    ....                              ",
"    ....   ....    .......    ....                              ",
"    ....   ....    .......    ....                              ",
"                       ...        ....   ...................    ",
"                       ...        ....   ...................    ",
"                       ...        ....   ...................    ",
"                       ...        ....   ...................    ",
"................................................................",
"................................................................",
"................................................................",
"...................    XXXXXXX..................................",
"...................    XXXXXXX..................................",
"...................    XXXXXXX..................................",
"...................    XXXXXXX..................................",
"...............    .......XXXXXXXX....XXXXXXX....       ........",
"...............    .......XXXXXXXX....XXXXXXX....       ........",
"...............    .......XXXXXXXX....XXXXXXX....       ........",
"...............    .......XXXXXXXX....XXXXXXX....       ........",
"....XXXXXXX    ....XXXX       XXXXXXXXXXX               ....    ",
"....XXXXXXX    ....XXXX       XXXXXXXXXXX               ....    ",
"....XXXXXXX    ....XXXX       XXXXXXXXXXX               ....    ",
"....XXXXXXX    ....XXXX       XXXXXXXXXXX               ....    ",
"....XXXXXXXXXXXXXXXXXXXXXXXXXXXXXXXXXXXXX            .......    ",
"....XXXXXXXXXXXXXXXXXXXXXXXXXXXXXXXXXXXXX            .......    ",
"....XXXXXXXXXXXXXXXXXXXXXXXXXXXXXXXXXXXXX            .......    ",
"    ....XXXXXXXXXXXXXXXXXXXXXXXXXXXXXXXXXXXXX        ...    ....",
"    ....XXXXXXXXXXXXXXXXXXXXXXXXXXXXXXXXXXXXX        ...    ....",
"    ....XXXXXXXXXXXXXXXXXXXXXXXXXXXXXXXXXXXXX        ...    ....",
"    ....XXXXXXXXXXXXXXXXXXXXXXXXXXXXXXXXXXXXX        ...    ....",
"XXXXXXXXXXXXXXXXXXXXXXXXXX    XXXXXXXXXXXXXXXXXXX           XXXX",
"XXXXXXXXXXXXXXXXXXXXXXXXXX    XXXXXXXXXXXXXXXXXXX           XXXX",
"XXXXXXXXXXXXXXXXXXXXXXXXXX    XXXXXXXXXXXXXXXXXXX           XXXX",
"XXXXXXXXXXXXXXXXXXXXXXXXXX    XXXXXXXXXXXXXXXXXXX           XXXX",
"XXXXXXXXXXXXXXXXXXXXXXX   ....    XXXXXXXXXXXXXXXXXXXXXXXXXXXXXX",
"XXXXXXXXXXXXXXXXXXXXXXX   ....    XXXXXXXXXXXXXXXXXXXXXXXXXXXXXX",
"XXXXXXXXXXXXXXXXXXXXXXX   ....    XXXXXXXXXXXXXXXXXXXXXXXXXXXXXX",
"XXXXXXXXXXXXXXXXXXXXXXX   ....    XXXXXXXXXXXXXXXXXXXXXXXXXXXXXX",
"XXXXXXXXXXXXXXXXXXXXXXX           XXXXXXXXXXXXXXXXXXXXXXXXXXXXXX",
"XXXXXXXXXXXXXXXXXXXXXXX           XXXXXXXXXXXXXXXXXXXXXXXXXXXXXX",
"XXXXXXXXXXXXXXXXXXXXXXX           XXXXXXXXXXXXXXXXXXXXXXXXXXXXXX",
"XXXXXXXX   XXXXXXXXXXXXXXXXXXXXXXXXXXXXXXXXXXXXXXXXXXXXXXXXXXXXX",
"XXXXXXXX   XXXXXXXXXXXXXXXXXXXXXXXXXXXXXXXXXXXXXXXXXXXXXXXXXXXXX",
"XXXXXXXX   XXXXXXXXXXXXXXXXXXXXXXXXXXXXXXXXXXXXXXXXXXXXXXXXXXXXX",
"XXXXXXXX   XXXXXXXXXXXXXXXXXXXXXXXXXXXXXXXXXXXXXXXXXXXXXXXXXXXXX",
"XXXX           XXXXXXXX   XXXXXXXXXXXXXXXXXXXXXXXXXXXXXXXXXXXXXX",
"XXXX           XXXXXXXX   XXXXXXXXXXXXXXXXXXXXXXXXXXXXXXXXXXXXXX",
"XXXX           XXXXXXXX   XXXXXXXXXXXXXXXXXXXXXXXXXXXXXXXXXXXXXX",
"XXXX           XXXXXXXX   XXXXXXXXXXXXXXXXXXXXXXXXXXXXXXXXXXXXXX",
"               XXXX           XXXXXXXXXXXXXXXXXXXXXXXXXXXXXX    ",
"               XXXX           XXXXXXXXXXXXXXXXXXXXXXXXXXXXXX    ",
"               XXXX           XXXXXXXXXXXXXXXXXXXXXXXXXXXXXX    ",
"               XXXX           XXXXXXXXXXXXXXXXXXXXXXXXXXXXXX    ",
"                                  XXXX..................XXXX    ",
"                                  XXXX..................XXXX    ",
"                                  XXXX..................XXXX    ",
"................................................................",
"................................................................",
"................................................................",
"................................................................",
"........               .........................................",
"........               .........................................",
"........               .........................................",
"........               ........................................."
};
