/* XPM */
static char *_4d20ec3f532421d8c10da67ec335f6eiXuOy6jXFO6Sj2Gs[] = {
/* columns rows colors chars-per-pixel */
"64 64 200 2 ",
"   c #020201",
".  c #080605",
"X  c #030807",
"o  c #0C0905",
"O  c #0D0D0C",
"+  c #080A0C",
"@  c #150903",
"#  c #100D09",
"$  c #180802",
"%  c #0E120D",
"&  c #18120D",
"*  c #131312",
"=  c #1B1C1C",
"-  c #2D1804",
";  c #201D14",
":  c #282718",
">  c #2E2A1D",
",  c #393115",
"<  c #24332D",
"1  c #3C3D2E",
"2  c #333436",
"3  c #2A3834",
"4  c #531C10",
"5  c #4A2F1A",
"6  c #4C473A",
"7  c #664622",
"8  c #4E5F5A",
"9  c #5C5956",
"0  c #4D4947",
"q  c #797977",
"w  c #974D28",
"e  c #B45026",
"r  c #987C3F",
"t  c #BF7231",
"y  c #D6561C",
"u  c #E05D1C",
"i  c #C55E2C",
"p  c #D25E21",
"a  c #E35C22",
"s  c #DB652B",
"d  c #D46A2A",
"f  c #D7652E",
"g  c #D36C34",
"h  c #D86532",
"j  c #D57B39",
"k  c #CB6A2C",
"l  c #E56925",
"z  c #EE7C23",
"x  c #E4762B",
"c  c #EF7E29",
"v  c #E57929",
"b  c #F27E26",
"n  c #F27E29",
"m  c #EA7A32",
"M  c #B47449",
"N  c #D97941",
"B  c #69837A",
"V  c #D9852C",
"C  c #EC812C",
"Z  c #EF8527",
"A  c #F38226",
"S  c #F2822A",
"D  c #E58737",
"F  c #ED8433",
"G  c #EF8738",
"H  c #EB8B3E",
"J  c #E98639",
"K  c #F18D3D",
"L  c #F18733",
"P  c #F1963E",
"I  c #F09434",
"U  c #E7BF32",
"Y  c #E4B53B",
"T  c #E9BC39",
"R  c #E9C535",
"E  c #ECC43B",
"W  c #E1C438",
"Q  c #F1C339",
"!  c #EEDE3D",
"~  c #F3DF3E",
"^  c #F5D63F",
"/  c #F5E23E",
"(  c #F8E23C",
")  c #A78451",
"_  c #BB9348",
"`  c #B39475",
"'  c #D78644",
"]  c #EC8643",
"[  c #EA8C44",
"{  c #E18B48",
"}  c #ED9547",
"|  c #F49D45",
" . c #EB9C53",
".. c #F29B55",
"X. c #D5BB5A",
"o. c #DEB151",
"O. c #E9AB4F",
"+. c #ECA259",
"@. c #EDBD5C",
"#. c #ECAE4F",
"$. c #D0BC63",
"%. c #DDAC75",
"&. c #CBB17B",
"*. c #ECB860",
"=. c #F1AE6C",
"-. c #DDC74A",
";. c #ECC442",
":. c #E6CB42",
">. c #E7C848",
",. c #F3DE40",
"<. c #F3D547",
"1. c #E6C358",
"2. c #E9CA5D",
"3. c #F5C35F",
"4. c #EADC5A",
"5. c #EADA43",
"6. c #EFE341",
"7. c #F4E241",
"8. c #F8E444",
"9. c #F3E944",
"0. c #F4E54B",
"q. c #F3E94F",
"w. c #EEE251",
"e. c #F5EA5D",
"r. c #F7E856",
"t. c #D9D16D",
"y. c #DCC477",
"u. c #E7C863",
"i. c #EED060",
"p. c #E4C674",
"a. c #E1C87E",
"s. c #F1CC71",
"d. c #EFDE70",
"f. c #F2D37B",
"g. c #F0D277",
"h. c #F4EB64",
"j. c #F6E766",
"k. c #F4E774",
"l. c #F8EE76",
"z. c #F6ED7B",
"x. c #F3EA73",
"c. c #FBF47B",
"v. c #ACA582",
"b. c #A5A596",
"n. c #A7A8A9",
"m. c #D6BF81",
"M. c #D7BE89",
"N. c #D3BF99",
"B. c #DDB699",
"V. c #ECBA9C",
"C. c #DBC28B",
"Z. c #D6C58A",
"A. c #D5C695",
"S. c #D4C299",
"D. c #D8C99A",
"F. c #E6CA83",
"G. c #F6C185",
"H. c #F5D789",
"J. c #E1CA91",
"K. c #E4D39A",
"L. c #F3DF9D",
"P. c #FBDD9C",
"I. c #EEE287",
"U. c #F2EC82",
"Y. c #F9F18F",
"T. c #F4E29D",
"R. c #F6EE91",
"E. c #F8F691",
"W. c #C6C4AD",
"Q. c #DFD2A6",
"!. c #ECC3A3",
"~. c #F3CEA5",
"^. c #E8D5A5",
"/. c #EDDCA5",
"(. c #EEDEAC",
"). c #F8D0A7",
"_. c #F0DEAC",
"`. c #F4DFA1",
"'. c #E7DBB6",
"]. c #F6DAB1",
"[. c #EEE2AD",
"{. c #F4E2A1",
"}. c #F2E2AC",
"|. c #F3E9A9",
" X c #EFE3B4",
".X c #F2E4B6",
"XX c #FEEEB9",
"oX c #F9FBA9",
"OX c #FFA5F8",
"+X c #B9D8D8",
"@X c #C5DCDC",
"#X c #F0EDC6",
"$X c #F6EED1",
"%X c #F7F3D6",
"&X c #F9F4CB",
"*X c #FFCBFA",
"=X c #FFDAFC",
"-X c #F7F7F8",
";X c #F5F9F9",
":X c #F0EFE2",
/* pixels */
"OXOXOXOX*X*X*X*XOXOXOX*X*X*X*XOXOXOXOX*X*X*X*X*X*X*XOXOXOXOX*X*X*X*XOXOXOXOXOXOXOXOXOXOXOXOXOXOXOXOXOXOXOXOXOXOXOXOXOXOXOXOXOXOX",
"OXOXOXOX*X*X*X*XOXOXOX*X*X*X*XOXOXOXOX*X*X*X*X*X*X*XOXOXOXOX*X*X*X*XOXOXOXOXOXOXOXOXOXOXOXOXOXOXOXOXOXOXOXOXOXOXOXOXOXOXOXOXOXOX",
"OXOXOXOX*X*X*X*XOXOXOX*X*X*X*XOXOXOXOX*X*X*X*X*X*X*XOXOXOXOX*X*X*X*XOXOXOXOXOXOXOXOXOXOXOXOXOXOXOXOXOXOXOXOXOXOXOXOXOXOXOXOXOXOX",
"OXOXOXOX*X*X*X*XOXOXOX*X*X*X*XOXOXOXOX*X*X*X*X*X*X*XOXOXOXOXX *XX X OXX OXOXOXOXOXOXOXOXOXOXOXOXOXOXOXOXOXOXOXOXOXOXOXOXOXOXOXOX",
"OXOXOXOXOXOXOXOXOXOXOXOXOXOXOXOXOXOXOXOXOXOXOX*X*X*XOXOXOXX U X U U X U X *XOXOXOX*X*X*X*X*X*X*X*X*X*X*X*X*X*X*X*X*X*X*XOXOXOXOX",
"OXOXOXOXOXOXOXOXOXOXOXOXOXOXOXOXOXOXOXOXOXOXOX*X*X*XOXOXOXX X.>.4.d.f.X.X *XOXOXOX*X*X*X*X*X*X*X*X*X*X*X*X*X*X*X*X*X*X*XOXOXOXOX",
"OXOXOXOXOXOXOXOXOXOXOXOXOXOXOXOXOXOXOXOXOXOXOX*X*X*XOXOXOXX X.X.1 ; -.X.X *XOXOXOX*X*X*X*X*X*X*X*X*X*X*X*X*X*X*X*X*X*X*XOXOXOXOX",
"OXOXOXOXOXOXOXOXOXOXOXOXOXOXOXOXOXOXOXOXOXOXOX*X*X*XOXOXOXOXX X /._.X X *X*XOXOXOX*X*X*X*X*X*X*X*X*X*X*X*X*X*X*X*X*X*X*XOXOXOXOX",
"*X*X*X*X*X*X*X*X*X*X*X*X*X*X*X*X*X*X*X*X*X*X*X*X*X*X*X*X*X*XX /.[.(./.X *X*X*X*X*X*X*X*X*X*X*X*X*X*X*X*X*X*X*X*X*X*X*X*X*X*X*X*X",
"*X*X*X*X*X*X*X*X*X*X*X*X*X*X*X*X*X*X*X*X*X*X*X*X*X*X*X*X*X6 (./.C.C./._.X *X*X*X*X*X*X*X*X*X*X*X*X*X*X*X*X*X*X*X*X*X*X*X*X*X*X*X",
"*X*X*X*X*X*X*X*X*X*X*X*X*X*X*X*X*X*X*X*X*X*X*X*X*X*X*X*XX /.(.C.].C.C.(.X *X*X*X*X*X*X*X*X*X*X*X*X*X*X*X*X*X*X*X*X*X*X*X*X*X*X*X",
"*X*X*X*X*X*X*X*X*X*X*X*X*X*X*X*X*X*X*XOXOXOXOX=X=X=X=X=X= C.C.C.).].N.N.D.* *X*X*X*X*X*X*X*X*X*X*X*X*X*X*X*X*X*X*X*X*X*X*X*X*X*X",
"*X*X*X*X*X*X*X*X*X*X*X*X*X*X*X*X*X*X*XOXOXOXOX=X=X=X=XX b.Z.C.C.).).N.C._.W.X *X*X*X*X*X*X*X*X*X*X*X*X*X*X*X*X*X*X*X*X*X*X*X*X*X",
"*X*X*X*X*X*X*X*X*X*X*X*X*X*X*X*X*X*X*XOXOXOXOX=X=X=X=XX &XC.C.].).).).).C.$XX *X*X*X*X*X*X*X*X*X*X*X*X*X*X*X*X*X*X*X*X*X*X*X*X*X",
"*X*X*X*X*X*X*X*X*X*X*X*X*X*X*X*X*X*X*XOXOXOXOX=X=X=X=XX $XC.].).).~.).)._.:XX *X*X*X*X*X*X*X*X*X*X*X*X*X*X*X*X*X*X*X*X*X*X*X*X*X",
"*X*X*X*X*X*X*X*X*X*X*X*X*X*X*XOXOXOXOX*X*X*X*X*X*X*X=XX %X_.).].).).).].C.#XX =X=X=X=X=X=X*X*X*X*XOXOXOXOXOXOXOX*X*X*X*X*X*X*X*X",
"*X*X*X*X*X*X*X*X*X*X*X*X*X*X*XOXOXOXOX*X*X*X*X*X*X*X=X=XO C.).).).).).!.K.9 =X=X=X=X=X=X=X*X*X*X*XOXOXOXOXOXOXOX*X*X*X*X*X*X*X*X",
"*X*X*X*X*X*X*X*X*X*X*X*X*X*X*XOXOXOXOX*X*X*X*X*X*X*X=X=XX /.).].).).].!._.% =X=X=X=X=X=X=X*X*X*X*XOXOXOXOXOXOXOX*X*X*X*X*X*X*X*X",
"*X*X*X*X*X*X*X*X*X*X*X*X*X*X*XOXOXOXOX*X*X*X*X*X*X*X=X=XX /.!.~.].].!.  (.X =X=X=X=X=X=X=X*X*X*X*XOXOXOXOXOXOXOX*X*X*X*X*X*X*X*X",
"*X*X*X*X=X=X=X=X=X=X=XOXOXOXOX*X*X*X*X=X=X=X=XOXOXOXOXOXOX# S.).].].V.^.X =X=X=X=XOXOXOXOXOXOXOXOXOXOXOXOXOXOXOX*X*X*X*XOXOXOXOX",
"*X*X*X*X=X=X=X=X=X=X=XOXOXOXOX*X*X*X*X=X=X=X=XOXOXOXOXOXX '.(.M.!.B.&.(.A.X =X=X=XOXOXOXOXOXOXOXOXOXOXOXOXOXOXOX*X*X*X*XOXOXOXOX",
"*X*X*X*X=X=X=X=X=X=X=XOXOXOXOX*X*X*X*X=X=X=X=XOXOXOXOXOX* A.m..X/..X/.J.[.# =X=X=XOXOXOXOXOXOXOXOXOXOXOXOXOXOXOX*X*X*X*XOXOXOXOX",
"*X*X*X*X=X=X=X=X=X=X=XOXOXOXOX*X*X*X*X=X=X=X=XOXOXOXOX  _./.Q.m.'./.(.}.^.}.O =X=XOXOXOXOXOXOXOXOXOXOXOXOXOXOXOX*X*X*X*XOXOXOXOX",
"*X*X*X*X=X=X=X=X=X=X=X=X=X=X=X=X=X=X=X=X=X=X=X=X=X=XX Y.p.[._./.D.m.[.(./.p.|.X =XOXOXOXOXOXOXOXOXOXOXOXOX*X*X*X*X*X*X*XOXOXOXOX",
"*X*X*X*X=X=X=X=X=X=X=X=X=X=X=X=X=X=X=X=X=X=X=X=X=X=XO 7.7.p./.(./.(._.K.2./ 7.< =XOXOXOXOXOXOXOXOXOXOXOXOX*X*X*X*X*X*X*XOXOXOXOX",
"*X*X*X*X=X=X=X=X=X=X=X=X=X=X=X=X=X=X=X=X=X=X=X=X=X=X  7./ 8.1.S./.K.p.>.7.7.7.. =XOXOXOXOXOXOXOXOXOXOXOXOX*X*X*X*X*X*X*XOXOXOXOX",
"OXOXOXOX*X*X*X*X=X=X=X=X=X=X=X=X=X=X=X=X=X=X=X=X=X=X  0./ ;.7.d p.k j.8.E 7.W   =X=X=X=X=XOXOXOXOXOXOXOXOX*X*X*XOXOXOXOX*X*X*X*X",
"OXOXOXOX*X*X*X*X=X=X=X=X=X=X=X=X=X=X=X=X=X=X=X=X=X=X@ @ ;.T 6.r I V 7.0.E 7.) =X=X=X=X=X=XOXOXOXOXOXOXOXOX*X*X*XOXOXOXOX*X*X*X*X",
"OXOXOXOX*X*X*X*X=X=X=X=X=X=X=X=X=X=X=X=X=X=X=X=X=X=X8 j   o., 7.' k./ R Y 7 v   =X=X=X=X=XOXOXOXOXOXOXOXOX*X*X*XOXOXOXOX*X*X*X*X",
"OXOXOXOX*X*X*X*X=X=X=X=X=X=X=X=X=X=X=X=X=X=X=X=X=XX z.7.  -X> 7.7.7.7.7.X g @.  =X=X=X=X=XOXOXOXOXOXOXOXOX*X*X*XOXOXOXOX*X*X*X*X",
"=X=X=X=X=X=X=X=X=X=X=X=X=X=X=X=X=X=X=X=X=X=X=X=X=XX 7.T X -X. 7.7.7.7.X -XX 7.x.X =X=X=X=X=X=X=X=XOXOXOXOXOXOXOXOXOXOXOX=X=X=X=X",
"=X=X=X=X=X=X=X=X=X=X=X=X=X=X=X=X=X=X=X=X=X=X=X=X=Xe.7.  -X. C e.7.7.t.5 -XX Y 9.3 =X=X=X=X=X=X=X=XOXOXOXOXOXOXOXOXOXOXOX=X=X=X=X",
"=X=X=X=X=X=X=X=X=X=X=X=X=X=X=X=X=X=X=X=X=X=X=X=X6 9.E -X. S A A ! 7.n n [   O / k.X =X=X=X=X=X=X=XOXOXOXOXOXOXOXOXOXOXOX=X=X=X=X",
"=X=X=X=X=X=X=X=X=X=X=X=X=X=X=X=X=X=X=X=X=X=X=XB 8.0.-X. S S n b ' d n S S L * W 7.O =X=X=X=X=X=X=XOXOXOXOXOXOXOXOXOXOXOX=X=X=X=X",
"=X=X=X=X=X=X=X=X=X=X=X=X=X=X=X=X=X=X=X=X=X+ M q.7.  . n n S n w o.[ n S n n =.O 7.w.X =X=X=X=X=X=X=X=X=X=X=X=X=X=X=X=X=X=X=X=X=X",
"=X=X=X=X=X=X=X=X=X=X=X=X=X=X=X=X=X=X=X=X  ;X:X_ g.  n S n b n i 7.i m n n b n %.i./ v.o =X=X=X=X=X=X=X=X=X=X=X=X=X=X=X=X=X=X=X=X",
"=X=X=X=X=X=X=X=X=X=X=X=X=X=X=X=X=X=X=X=X=X  + N -X. C b S b e R 7.8.d S b x S n . <.j ;X2 =X=X=X=X=X=X=X=X=X=X=X=X=X=X=X=X=X=X=X",
"=X=X=X=X=X=X=X=X=X=X=X=X=X=X=X=X=X=X=X=X=X=X=XOX+ s g H A i T ~ 7.7.>.n K c b ..=.o o +X@Xo =X=X=X=X=X=X=X=X=X=X=X=X=X=X=X=X=X=X",
"=X=X=X=X=X=X=X=X=X=X=X=X=X=X=X=X=X=X=X=X=X=X=X% c C S b N E / 7.,.,.7.i A C h l l l o o o =X=X=X=X=X=X=X=X=X=X=X=X=X=X=X=X=X=X=X",
"=X=X=X=X=X=X=X=X=X=X=X=X=X=X=X=X=X=X=X=X=X=X=X  S n h i R / 7./ ~ ,./ 8.i S S c +.G.o =X=X=X=X=X=X=X=X=X=X=X=X=X=X=X=X=X=X=X=X=X",
"=X=X=X=X=X=X=X=X=X=X=X=X=X=X=X=X=X=X=X=X=X=X. I.i i ;.R 7.7.7.,.,.~ ,.7.,.i.f A b S o =X=X=X=X=X=X=X=X=X=X=X=X=X=X=X=X=X=X=X=X=X",
"=X=X=X=X=X=X=X=XOXOXOX=X=X=X=X=X=X=X=X=X=X=X. 9.7.7.7./ 7.7.7.,.,.,.,.7./ 7.u.R i @ =X=X=X=X=X=X=X=X=X=X=X=X=X=X=X=X=X=X=X=X=X=X",
"=X=X=X=X=X=X=X=XOXOXOX=X=X=X=X=X=X=X=X=X=X=XX 7.7.7.7.7.7.7.7.7.7.,.~ ,.,.7.7.,.^ 7.  =X=X=X=X=X=X=X=X=X=X=X=X=X=X=X=X=X=X=X=X=X",
"=X=X=X=X=X=X=X=XOXOXOX=X=X=X=X=X=X=X=X=X=XX x.7.7.7.7.7.,.7.7.,.x 7.,.,.,.,./ / / 7.h.X =X=X=X=X=X=X=X=X=X=X=X=X=X=X=X=X=X=X=X=X",
"=X=X=X=X=X=X=X=XOXOXOX=X=X=X=X=X=X=X=X=X=XX 9.7.7.7./ 7.7.,.7.S s.F ,.,.,.,.~ 7./ 7.7.% =X=X=X=X=X=X=X=X=X=X=X=X=X=X=X=X=X=X=X=X",
"=X=X=X=XOXOXOXOXOXOXOXOXOXOXOX=X=X=X=X=XX E.7./ 7.7.7.7.,.,.7.c H.c ,.,.,.7./ 7./ / 7.oXX =X=X=X=X=X=X=X=X=X=X=X=X=X=X=X=X=X=X=X",
"=X=X=X=XOXOXOXOXOXOXOXOXOXOXOX=X=X=X=X=XX l.7.7./ x./ 7.,.7.7.S z c ,.,.,.,.7.7.:.7./ h.X =X=X=X=X=X=X=X=X=X=X=X=X=X=X=X=X=X=X=X",
"=X=X=X=XOXOXOXOXOXOXOXOXOXOXOX=X=X=X=X=Xo 7.7./ ;.8./ ,.,.,.7.7.c / ,.,.,.,.,.7.:./ / 7.X =X=X=X=X=X=X=X=X=X=X=X=X=X=X=X=X=X=X=X",
"=X=X=X=XOXOXOXOXOXOXOXOXOXOXOX=X=X=X=XX U./ / ~ Q / ~ / ,.7.w.0.F 7.,.,.,.,.,.7.x./ / / : =X=X=X=X=X=X=X=X=X=X=X=X=X=X=X=X=X=X=X",
"OXOXOXOXOXOXOXOXOXOXOXOXOXOXOX=X=X=X=XX z./ / / R./ / / ,.m / c G 7.C / ,.,.7.7.0.Q / 7.l.X =X=X=X=X=X=X=X=X=X=X=X=X=X=XOXOXOXOX",
"OXOXOXOXOXOXOXOXOXOXOXOXOXOXOX=X=X=X=X. 8.7./ Q l.7./ / / c / Z c c c ~ 7.7.7.7.8.;./ / e.X =X=X=X=X=X=X=X=X=X=X=X=X=X=XOXOXOXOX",
"OXOXOXOXOXOXOXOXOXOXOXOXOXOXOX=X=X=X=X& / / / ;.0.e.} / 7.7.c P c S 7.7.7.c 8.7./ ;./ / 7.# =X=X=X=X=X=X=X=X=X=X=X=X=X=XOXOXOXOX",
"OXOXOXOXOXOXOXOXOXOXOXOXOXOXOX=X=X=X. H./ ! H c q.w C v 7./ A c F.S 5.7.8.A c / / c <.( / { . =X=X=X=X=X=X=X=X=X=X=X=X=XOXOXOXOX",
"OXOXOXOXOXOXOXOXOXOXOXOXOXOXOXOXOXOX. ..7.p *. .,.z F.z / k S y.T.{ H 7.A H.S c q.K l ,.0.P.. *X*X*X*X*X*X*X*X*X=X=X=X=XOXOXOXOX",
"OXOXOXOXOXOXOXOXOXOXOXOXOXOXOXOXOXOXO - 8.c O.+.8.S P } j.A c T.T.c A j.| H.F / r.f.3.c / x . *X*X*X*X*X*X*X*X*X=X=X=X=XOXOXOXOX",
"OXOXOXOXOXOXOXOXOXOXOXOXOXOXOXOXOXOX  7./ ,.m D 7.A ,.$.A S y.T.{.y.S A c.L C 8.,.A f ,./ j.% *X*X*X*X*X*X*X*X*X=X=X=X=XOXOXOXOX",
"*X*X*X*X*X*X*X*X*X*X*X*X*X*X*X*X*X0 G J e.r.1./ 7./ j.A b c L.L.T.{.c A J w./ / / 4.,.,./ 8.` . *X*X*X*X*X*X*X*X*X*X*X*X*X*X*X*X",
"*X*X*X*X*X*X*X*X*X*X*X*X*X*X*X*X*Xq n n S y c c c D A A c a.T.T.L.T.a.v S S r./ / 7..Xc c b S @ *X*X*X*X*X*X*X*X*X*X*X*X*X*X*X*X",
"*X*X*X*X*X*X*X*X*X*X*X*X*X*X*X*X*X*X  ] n a c n A A n b Z.{.T.{.`.L.T.c S A S z F b +.u b n m . *X*X*X*X*X*X*X*X*X*X*X*X*X*X*X*X",
"*X*X*X*X*X*X*X*X*X*X*X*X*X*X*X*X*X*X*X. . . . S S S c y.T.T.{.{.{.{.L.F.c S S S S S S 4 $   . *X*X*X*X*X*X*X*X*X*X*X*X*X*X*X*X*X",
"*X*X*X*X*X*X*X*XOXOXOXOXOXOXOXOXOXOXOXOXOXOXOX=   . . . . {.XX}.|.o n.v.. 9 ] S S n @ *X*X*X*X*X*X*X*X*X*X*X*X*X*X*X*X*X*X*X*X*X",
"*X*X*X*X*X*X*X*XOXOXOXOXOXOXOXOXOXOXOXOXOXOXOX*X*X*X*X*X*X$ . . . *X*X*X*X*X. . . . *X*X*X*X*X*X*X*X*X*X*X*X*X*X*X*X*X*X*X*X*X*X",
"*X*X*X*X*X*X*X*XOXOXOXOXOXOXOXOXOXOXOXOXOXOXOX*X*X*X*X*X*X*X*X*X*X*X*X*X*X*X*X*X*X*X*X*X*X*X*X*X*X*X*X*X*X*X*X*X*X*X*X*X*X*X*X*X",
"*X*X*X*X*X*X*X*XOXOXOXOXOXOXOXOXOXOXOXOXOXOXOX*X*X*X*X*X*X*X*X*X*X*X*X*X*X*X*X*X*X*X*X*X*X*X*X*X*X*X*X*X*X*X*X*X*X*X*X*X*X*X*X*X"
};
